X:372
T: "Fein's Trudchen"
N: Z1052
O: Europa, Mitteleuropa, Deutschland, Niederrhein
R: Romanze, Ballade
M: 6/8
L: 1/16
K: F
C2 | F3GA2G2A2G2 | F4D2C4
C2 | F3GA2G2A2G2 | F4D2C4z2
A6B6 | c2A2F2G2F2G2 | F3GA2G2A2B2
A6B6 | c2A2F2G2F2G2 | F6-F4

